preview/assets/images/templates.svg

<svg width="123" height="76" viewBox="0 0 123 76" fill="none" xmlns="http://www.w3.org/2000/svg">
<path d="M79 8H121.11V68H79V8Z" fill="white" stroke="#333333" stroke-width="2" stroke-linecap="round" stroke-linejoin="round"/>
<path d="M1 8H43.11V68H1V8Z" fill="white" stroke="#333333" stroke-width="2" stroke-linecap="round" stroke-linejoin="round"/>
<path d="M34.05 1H88.05V75H34.05V1Z" fill="white" stroke="#333333" stroke-width="2" stroke-linecap="round" stroke-linejoin="round"/>
<path d="M34.05 28H88.05V53H34.05V28Z" fill="#FF7C83" stroke="#333333" stroke-width="2" stroke-linecap="round" stroke-linejoin="round"/>
<path d="M35.8 53L50.83 37L67.55 53H35.8Z" fill="#333333" fill-opacity="0.2" stroke="#333333" stroke-width="1.5" stroke-linecap="round" stroke-linejoin="round"/>
<path d="M80.05 52.5L66.78 40.25L61.03 46.5L66.55 52.5H80.05Z" fill="#333333" fill-opacity="0.09" stroke="#333333" stroke-width="1.5" stroke-linecap="round" stroke-linejoin="round"/>
<path d="M78.55 38.5C80.2068 38.5 81.55 37.1569 81.55 35.5C81.55 33.8431 80.2068 32.5 78.55 32.5C76.8931 32.5 75.55 33.8431 75.55 35.5C75.55 37.1569 76.8931 38.5 78.55 38.5Z" fill="#333333" fill-opacity="0.2" stroke="#333333" stroke-width="1.5" stroke-linecap="round" stroke-linejoin="round"/>
<path opacity="0.2" d="M61.55 15C64.0353 15 66.05 12.9853 66.05 10.5C66.05 8.01472 64.0353 6 61.55 6C59.0647 6 57.05 8.01472 57.05 10.5C57.05 12.9853 59.0647 15 61.55 15Z" fill="#333333"/>
<path opacity="0.2" d="M50.05 19H41.05C39.9454 19 39.05 19.8954 39.05 21C39.05 22.1046 39.9454 23 41.05 23H50.05C51.1546 23 52.05 22.1046 52.05 21C52.05 19.8954 51.1546 19 50.05 19Z" fill="#333333"/>
<path opacity="0.2" d="M81.05 19H72.05C70.9454 19 70.05 19.8954 70.05 21C70.05 22.1046 70.9454 23 72.05 23H81.05C82.1546 23 83.05 22.1046 83.05 21C83.05 19.8954 82.1546 19 81.05 19Z" fill="#333333"/>
<path opacity="0.2" d="M66.05 19H57.05C55.9454 19 55.05 19.8954 55.05 21C55.05 22.1046 55.9454 23 57.05 23H66.05C67.1546 23 68.05 22.1046 68.05 21C68.05 19.8954 67.1546 19 66.05 19Z" fill="#333333"/>
<path opacity="0.2" d="M81.05 57H41.05C39.9454 57 39.05 57.8954 39.05 59C39.05 60.1046 39.9454 61 41.05 61H81.05C82.1546 61 83.05 60.1046 83.05 59C83.05 57.8954 82.1546 57 81.05 57Z" fill="#333333"/>
<path opacity="0.2" d="M81.05 65H41.05C39.9454 65 39.05 65.8954 39.05 67C39.05 68.1046 39.9454 69 41.05 69H81.05C82.1546 69 83.05 68.1046 83.05 67C83.05 65.8954 82.1546 65 81.05 65Z" fill="#333333"/>
<path opacity="0.15" d="M33.05 14H9.04999C7.94542 14 7.04999 14.8954 7.04999 16C7.04999 17.1046 7.94542 18 9.04999 18H33.05C34.1546 18 35.05 17.1046 35.05 16C35.05 14.8954 34.1546 14 33.05 14Z" fill="#333333"/>
<path opacity="0.15" d="M114.05 14H90.05C88.9454 14 88.05 14.8954 88.05 16C88.05 17.1046 88.9454 18 90.05 18H114.05C115.155 18 116.05 17.1046 116.05 16C116.05 14.8954 115.155 14 114.05 14Z" fill="#333333"/>
<path opacity="0.15" d="M114.05 22H90.05C88.9454 22 88.05 22.8954 88.05 24C88.05 25.1046 88.9454 26 90.05 26H114.05C115.155 26 116.05 25.1046 116.05 24C116.05 22.8954 115.155 22 114.05 22Z" fill="#333333"/>
<path opacity="0.15" d="M114.05 51H99.05C97.9454 51 97.05 51.8954 97.05 53C97.05 54.1046 97.9454 55 99.05 55H114.05C115.155 55 116.05 54.1046 116.05 53C116.05 51.8954 115.155 51 114.05 51Z" fill="#333333"/>
<path opacity="0.15" d="M114.05 58H99.05C97.9454 58 97.05 58.8954 97.05 60C97.05 61.1046 97.9454 62 99.05 62H114.05C115.155 62 116.05 61.1046 116.05 60C116.05 58.8954 115.155 58 114.05 58Z" fill="#333333"/>
<path opacity="0.15" d="M30.05 22H35.05V26H30.05C29.5196 26 29.0108 25.7893 28.6358 25.4142C28.2607 25.0391 28.05 24.5304 28.05 24C28.05 23.4696 28.2607 22.9609 28.6358 22.5858C29.0108 22.2107 29.5196 22 30.05 22V22Z" fill="#333333"/>
<path opacity="0.15" d="M30.05 29H35.05V33H30.05C29.5196 33 29.0108 32.7893 28.6358 32.4142C28.2607 32.0391 28.05 31.5304 28.05 31C28.05 30.4696 28.2607 29.9609 28.6358 29.5858C29.0108 29.2107 29.5196 29 30.05 29V29Z" fill="#333333"/>
<path opacity="0.15" d="M30.05 36H35.05V40H30.05C29.5196 40 29.0108 39.7893 28.6358 39.4142C28.2607 39.0391 28.05 38.5304 28.05 38C28.05 37.4696 28.2607 36.9609 28.6358 36.5858C29.0108 36.2107 29.5196 36 30.05 36V36Z" fill="#333333"/>
<path opacity="0.15" d="M7.04999 22H25.05V40H7.04999V22Z" fill="#333333"/>
<path opacity="0.15" d="M30.05 44H35.05V48H30.05C29.5196 48 29.0108 47.7893 28.6358 47.4142C28.2607 47.0391 28.05 46.5304 28.05 46C28.05 45.4696 28.2607 44.9609 28.6358 44.5858C29.0108 44.2107 29.5196 44 30.05 44V44Z" fill="#333333"/>
<path opacity="0.15" d="M30.05 51H35.05V55H30.05C29.5196 55 29.0108 54.7893 28.6358 54.4142C28.2607 54.0391 28.05 53.5304 28.05 53C28.05 52.4696 28.2607 51.9609 28.6358 51.5858C29.0108 51.2107 29.5196 51 30.05 51V51Z" fill="#333333"/>
<path opacity="0.15" d="M30.05 58H35.05V62H30.05C29.5196 62 29.0108 61.7893 28.6358 61.4142C28.2607 61.0391 28.05 60.5304 28.05 60C28.05 59.4696 28.2607 58.9609 28.6358 58.5858C29.0108 58.2107 29.5196 58 30.05 58V58Z" fill="#333333"/>
<path opacity="0.15" d="M7.04999 44H25.05V62H7.04999V44Z" fill="#333333"/>
<path opacity="0.15" d="M97.05 30H115.05V48H97.05V30Z" fill="#333333"/>
<path opacity="0.15" d="M91.05 51H89.05C87.9454 51 87.05 51.8954 87.05 53C87.05 54.1046 87.9454 55 89.05 55H91.05C92.1546 55 93.05 54.1046 93.05 53C93.05 51.8954 92.1546 51 91.05 51Z" fill="#333333"/>
<path opacity="0.15" d="M91.05 58H89.05C87.9454 58 87.05 58.8954 87.05 60C87.05 61.1046 87.9454 62 89.05 62H91.05C92.1546 62 93.05 61.1046 93.05 60C93.05 58.8954 92.1546 58 91.05 58Z" fill="#333333"/>
<path opacity="0.15" d="M87.05 30H92.73V48H87.05V30Z" fill="#333333"/>
</svg>

<svg width="123" height="76" fill="none" xmlns="http://www.w3.org/2000/svg"><path d="M79 8h42.11v60H79V8zM1 8h42.11v60H1V8z" fill="#fff" stroke="#333" stroke-width="2" stroke-linecap="round" stroke-linejoin="round"/><path d="M34.05 1h54v74h-54V1z" fill="#fff" stroke="#333" stroke-width="2" stroke-linecap="round" stroke-linejoin="round"/><path d="M34.05 28h54v25h-54V28z" fill="#FF7C83" stroke="#333" stroke-width="2" stroke-linecap="round" stroke-linejoin="round"/><path d="M35.8 53l15.03-16 16.72 16H35.8z" fill="#333" fill-opacity=".2" stroke="#333" stroke-width="1.5" stroke-linecap="round" stroke-linejoin="round"/><path d="M80.05 52.5L66.78 40.25l-5.75 6.25 5.52 6h13.5z" fill="#333" fill-opacity=".09" stroke="#333" stroke-width="1.5" stroke-linecap="round" stroke-linejoin="round"/><path d="M78.55 38.5a3 3 0 100-6 3 3 0 000 6z" fill="#333" fill-opacity=".2" stroke="#333" stroke-width="1.5" stroke-linecap="round" stroke-linejoin="round"/><path opacity=".2" d="M61.55 15a4.5 4.5 0 100-9 4.5 4.5 0 000 9zM50.05 19h-9a2 2 0 100 4h9a2 2 0 100-4zM81.05 19h-9a2 2 0 100 4h9a2 2 0 100-4zM66.05 19h-9a2 2 0 100 4h9a2 2 0 100-4zM81.05 57h-40a2 2 0 100 4h40a2 2 0 100-4zM81.05 65h-40a2 2 0 100 4h40a2 2 0 100-4z" fill="#333"/><path opacity=".15" d="M33.05 14h-24a2 2 0 100 4h24a2 2 0 100-4zM114.05 14h-24a2 2 0 100 4h24a2 2 0 100-4zM114.05 22h-24a2 2 0 100 4h24a2 2 0 100-4zM114.05 51h-15a2 2 0 100 4h15a2 2 0 100-4zM114.05 58h-15a2 2 0 100 4h15a2 2 0 100-4zM30.05 22h5v4h-5a2 2 0 110-4zM30.05 29h5v4h-5a2 2 0 110-4zM30.05 36h5v4h-5a2 2 0 110-4zM7.05 22h18v18h-18V22zM30.05 44h5v4h-5a2 2 0 110-4zM30.05 51h5v4h-5a2 2 0 110-4zM30.05 58h5v4h-5a2 2 0 110-4zM7.05 44h18v18h-18V44zM97.05 30h18v18h-18V30zM91.05 51h-2a2 2 0 100 4h2a2 2 0 100-4zM91.05 58h-2a2 2 0 100 4h2a2 2 0 100-4zM87.05 30h5.68v18h-5.68V30z" fill="#333"/></svg>
